svg/seat.svg

<svg xmlns="http://www.w3.org/2000/svg" viewBox="0 0 24 24"><path d="M4 18v3h3v-3h10v3h3v-6H4zm15-8h3v3h-3zM2 10h3v3H2zm15 3H7V5a2 2 0 0 1 2-2h6a2 2 0 0 1 2 2z"/></svg>

<?xml version="1.0" encoding="UTF-8"?><!DOCTYPE svg PUBLIC "-//W3C//DTD SVG 1.1//EN" "http://www.w3.org/Graphics/SVG/1.1/DTD/svg11.dtd"><svg xmlns="http://www.w3.org/2000/svg" xmlns:xlink="http://www.w3.org/1999/xlink" version="1.1" id="mdi-seat" width="24" height="24" viewBox="0 0 24 24"><path d="M4,18V21H7V18H17V21H20V15H4V18M19,10H22V13H19V10M2,10H5V13H2V10M17,13H7V5A2,2 0 0,1 9,3H15A2,2 0 0,1 17,5V13Z" /></svg>
